packages/kaspersky-hexa-ui-icons/src/iconsSVGs/48/PinLocation.svg

<svg xmlns="http://www.w3.org/2000/svg" width="48" height="48" fill="none" viewBox="0 0 48 48"><path fill="currentColor" fill-rule="evenodd" d="M24 0C14.0589 0 6 8.0589 6 18c0 14.29 16.64 28.8 17.35 29.41L24 48l.65-.56C25.36 46.8 42 32.29 42 18c0-9.9411-8.0589-18-18-18m0 45.3C20.92 42.46 8 29.85 8 18 8 9.1634 15.1634 2 24 2s16 7.1634 16 16c0 11.84-12.92 24.46-16 27.3M24 12c-3.3137 0-6 2.6863-6 6s2.6863 6 6 6 6-2.6863 6-6a6 6 0 0 0-1.7574-4.2426A6 6 0 0 0 24 12m0 10c-2.2091 0-4-1.7909-4-4s1.7909-4 4-4 4 1.7909 4 4-1.7909 4-4 4" clip-rule="evenodd"/></svg>

<svg width="48" height="48" viewBox="0 0 48 48" fill="none" xmlns="http://www.w3.org/2000/svg">
<path fill-rule="evenodd" clip-rule="evenodd" d="M24 0C14.0589 0 6 8.05887 6 18C6 32.29 22.64 46.8 23.35 47.41L24 48L24.65 47.44C25.36 46.8 42 32.29 42 18C42 8.05887 33.9411 0 24 0ZM24 45.3C20.92 42.46 8 29.85 8 18C8 9.16344 15.1634 2 24 2C32.8366 2 40 9.16344 40 18C40 29.84 27.08 42.46 24 45.3ZM24 12C20.6863 12 18 14.6863 18 18C18 21.3137 20.6863 24 24 24C27.3137 24 30 21.3137 30 18C30 16.4087 29.3679 14.8826 28.2426 13.7574C27.1174 12.6321 25.5913 12 24 12ZM24 22C21.7909 22 20 20.2091 20 18C20 15.7909 21.7909 14 24 14C26.2091 14 28 15.7909 28 18C28 20.2091 26.2091 22 24 22Z"  fill="currentColor"/>
</svg>
